X: 1461
T: Comely Jane Downing
M:C|
L:1/8
N:"collected by F. O'Neill"
B:O'Neill's 1461
Z:"Transcribed by Bob Safranek, rjs@gsp.org"
K:G
G2 (BG) BddB | c2 (ec) (ef) g2 | G2 (BG) Bddg | edcB ABcA    |
G2 (BG) BddB |   cBcd   efga   |  bgaf   gfeg | edcB A2  G2  ||
g2 (bg) afed |   edef   gdBd   | g2 (bg) afed | edef g2 (ga) |
  bagf  gfed |   edef   gdBd   |  cBcd   efge | dBGB A2  G2  |]


